public/logos/DE.svg

<?xml version="1.0" encoding="UTF-8"?>
<svg xmlns="http://www.w3.org/2000/svg" xmlns:xlink="http://www.w3.org/1999/xlink" width="176pt" height="36.89pt" viewBox="0 0 176 36.89" version="1.1">
<defs>
<clipPath id="clip1">
  <path d="M 0 0 L 36 0 L 36 36.890625 L 0 36.890625 Z M 0 0 "/>
</clipPath>
</defs>
<g id="surface1">
<path style=" stroke:none;fill-rule:nonzero;fill:rgb(86.746216%,66.108704%,7.527161%);fill-opacity:1;" d="M 64.402344 34.148438 C 55.183594 34.148438 51.152344 27.277344 51.253906 18.554688 C 51.355469 9.792969 56.503906 2.890625 65.398438 2.890625 C 69.253906 2.890625 71.882812 4 72.734375 4.394531 L 71.621094 8.316406 C 70.445312 7.792969 68.210938 7.144531 66.179688 7.140625 C 62.296875 7.140625 57.785156 9.414062 57.730469 18.3125 C 57.683594 26.421875 60.871094 29.898438 65.710938 29.898438 C 68.0625 29.898438 70.289062 29.050781 71.136719 28.589844 L 72.382812 32.1875 C 71.074219 32.84375 68.390625 34.148438 64.402344 34.148438 "/>
<path style=" stroke:none;fill-rule:nonzero;fill:rgb(86.746216%,66.108704%,7.527161%);fill-opacity:1;" d="M 82.617188 34.085938 C 76.796875 34.085938 72.34375 30.816406 72.34375 22.3125 C 72.34375 13.8125 76.796875 10.542969 82.617188 10.539062 C 88.433594 10.539062 92.878906 13.8125 92.882812 22.3125 C 92.878906 30.816406 88.433594 34.082031 82.617188 34.085938 M 82.679688 13.941406 C 79.605469 13.941406 78.167969 16.425781 78.167969 22.3125 C 78.167969 28.199219 79.539062 30.617188 82.613281 30.621094 C 85.691406 30.621094 87.0625 28.199219 87.0625 22.3125 C 87.0625 16.425781 85.753906 13.941406 82.679688 13.941406 "/>
<path style=" stroke:none;fill-rule:nonzero;fill:rgb(86.746216%,66.108704%,7.527161%);fill-opacity:1;" d="M 101.015625 10.917969 L 101.378906 13.457031 C 103.179688 11.0625 105.199219 10.457031 107.699219 10.457031 C 113.34375 10.457031 114.316406 14.808594 114.316406 18.050781 L 114.316406 33.789062 L 108.855469 33.789062 L 108.855469 19.902344 C 108.855469 17.863281 109.085938 14.160156 105.613281 14.160156 C 101.632812 14.160156 101.261719 19.578125 101.261719 21.519531 L 101.261719 33.789062 L 95.800781 33.789062 L 95.800781 10.917969 L 101.015625 10.917969 "/>
<path style=" stroke:none;fill-rule:nonzero;fill:rgb(86.746216%,66.108704%,7.527161%);fill-opacity:1;" d="M 136.746094 3.242188 L 136.746094 33.769531 L 131.886719 33.769531 L 131.703125 29.835938 C 130.59375 31.777344 128.785156 34.230469 125.222656 34.230469 C 119.898438 34.230469 117.351562 28.722656 117.351562 22.332031 C 117.351562 14.003906 121.566406 10.4375 125.546875 10.4375 C 129.433594 10.4375 130.867188 13.402344 131.285156 14.328125 L 131.285156 3.242188 L 136.746094 3.242188 M 127.121094 30.527344 C 131.285156 30.527344 131.285156 23.585938 131.285156 22.242188 C 131.285156 19.464844 130.964844 14.140625 127.261719 14.140625 C 123.183594 14.140625 123.140625 20.855469 123.140625 22.242188 C 123.140625 25.714844 123.648438 30.527344 127.121094 30.527344 "/>
<path style=" stroke:none;fill-rule:nonzero;fill:rgb(86.746216%,66.108704%,7.527161%);fill-opacity:1;" d="M 149.976562 34.09375 C 144.15625 34.09375 139.707031 30.824219 139.707031 22.320312 C 139.710938 13.820312 144.15625 10.550781 149.976562 10.550781 C 155.796875 10.550781 160.179688 13.820312 160.179688 22.320312 C 160.179688 30.824219 155.796875 34.09375 149.976562 34.09375 M 149.976562 13.949219 C 146.902344 13.949219 145.464844 16.4375 145.464844 22.320312 C 145.464844 28.207031 146.902344 30.628906 149.976562 30.628906 C 153.050781 30.628906 154.421875 28.207031 154.425781 22.320312 C 154.421875 16.4375 153.054688 13.953125 149.976562 13.949219 "/>
<path style=" stroke:none;fill-rule:nonzero;fill:rgb(86.746216%,66.108704%,7.527161%);fill-opacity:1;" d="M 167.945312 10.910156 L 168.082031 16.605469 C 169.890625 11.003906 172.761719 10.539062 173.824219 10.539062 C 174.703125 10.539062 175.535156 10.773438 176 10.910156 L 175.027344 15.675781 C 174.613281 15.585938 173.960938 15.402344 173.269531 15.402344 C 171.742188 15.402344 170.582031 16.328125 170.074219 17.066406 C 168.964844 18.597656 168.5 20.308594 168.5 25.585938 L 168.5 33.777344 L 163.039062 33.777344 L 163.039062 10.910156 L 167.945312 10.910156 "/>
<g clip-path="url(#clip1)" clip-rule="nonzero">
<path style=" stroke:none;fill-rule:nonzero;fill:rgb(86.746216%,66.108704%,7.527161%);fill-opacity:1;" d="M 17.863281 35.257812 C 8.625 35.257812 1.664062 27.777344 1.664062 18.507812 C 1.664062 9.246094 8.625 1.691406 17.863281 1.691406 C 27.101562 1.691406 34.0625 9.246094 34.0625 18.507812 C 34.0625 27.777344 27.101562 35.257812 17.863281 35.257812 Z M 17.863281 -0.00390625 C 7.675781 -0.00390625 0 8.285156 0 18.472656 C 0 28.660156 7.675781 36.890625 17.863281 36.890625 C 28.050781 36.890625 35.726562 28.660156 35.726562 18.472656 C 35.726562 8.285156 28.050781 -0.00390625 17.863281 -0.00390625 "/>
</g>
<path style=" stroke:none;fill-rule:nonzero;fill:rgb(86.746216%,66.108704%,7.527161%);fill-opacity:1;" d="M 28.703125 29.839844 L 28.703125 26.917969 L 16.683594 16.011719 C 16.210938 15.574219 16.367188 15.335938 16.820312 15.335938 C 17.339844 15.335938 25.820312 15.335938 25.820312 15.335938 L 21.285156 18.992188 L 22.953125 20.597656 L 32.410156 13.246094 L 18.433594 13.242188 C 16.558594 13.242188 15.867188 13.28125 15.425781 13.414062 C 15.003906 13.542969 14.449219 13.8125 14.152344 14.464844 C 13.933594 14.941406 13.921875 15.800781 14.234375 16.332031 C 14.660156 17.070312 15.386719 17.722656 17.246094 19.683594 C 15.40625 18.550781 10.496094 15.335938 10.496094 15.335938 C 10.496094 15.335938 11.585938 15.339844 11.859375 15.339844 C 11.859375 14.816406 11.855469 13.242188 11.855469 13.242188 L 3.1875 13.242188 L 28.703125 29.839844 "/>
</g>
</svg>

<svg xmlns="http://www.w3.org/2000/svg" width="176pt" height="49.187" viewBox="0 0 176 36.89"><defs><clipPath id="a"><path d="M0 0h36v36.89H0Zm0 0"/></clipPath></defs><path d="M64.402 34.148c-9.218 0-13.25-6.87-13.148-15.593.101-8.762 5.25-15.664 14.144-15.664 3.856 0 6.485 1.109 7.336 1.504l-1.113 3.921c-1.176-.523-3.41-1.171-5.441-1.175-3.883 0-8.395 2.273-8.45 11.172-.046 8.109 3.141 11.585 7.98 11.585 2.353 0 4.58-.847 5.427-1.308l1.246 3.598c-1.309.656-3.992 1.96-7.98 1.96" style="stroke:none;fill-rule:nonzero;fill:#dda913;fill-opacity:1"/><path d="M82.617 34.086c-5.82 0-10.273-3.27-10.273-11.773 0-8.5 4.453-11.77 10.273-11.774 5.817 0 10.262 3.274 10.266 11.774-.004 8.503-4.45 11.769-10.266 11.773m.063-20.145c-3.075 0-4.512 2.485-4.512 8.372 0 5.886 1.371 8.304 4.445 8.308 3.078 0 4.45-2.422 4.45-8.308 0-5.887-1.31-8.372-4.383-8.372M101.016 10.918l.363 2.539c1.8-2.395 3.82-3 6.32-3 5.645 0 6.617 4.352 6.617 7.594v15.738h-5.46V19.902c0-2.039.23-5.742-3.243-5.742-3.98 0-4.351 5.418-4.351 7.36v12.27H95.8V10.917zM136.746 3.242V33.77h-4.86l-.183-3.934c-1.11 1.941-2.918 4.394-6.48 4.394-5.325 0-7.871-5.507-7.871-11.898 0-8.328 4.214-11.894 8.195-11.894 3.887 0 5.32 2.964 5.738 3.89V3.242zm-9.625 27.285c4.164 0 4.164-6.941 4.164-8.285 0-2.777-.32-8.101-4.023-8.101-4.078 0-4.121 6.714-4.121 8.101 0 3.473.507 8.285 3.98 8.285M149.977 34.094c-5.82 0-10.27-3.27-10.27-11.774.004-8.5 4.45-11.77 10.27-11.77s10.203 3.27 10.203 11.77c0 8.504-4.383 11.774-10.203 11.774m0-20.145c-3.075 0-4.512 2.489-4.512 8.371 0 5.887 1.437 8.309 4.512 8.309s4.445-2.422 4.449-8.309c-.004-5.882-1.371-8.367-4.45-8.37M167.945 10.91l.137 5.695c1.809-5.601 4.68-6.066 5.742-6.066.88 0 1.711.234 2.176.371l-.973 4.766c-.414-.09-1.066-.274-1.757-.274-1.528 0-2.688.926-3.196 1.664-1.11 1.532-1.574 3.243-1.574 8.52v8.191h-5.46V10.91z" style="stroke:none;fill-rule:nonzero;fill:#dda913;fill-opacity:1"/><g clip-path="url(#a)"><path d="M17.863 35.258c-9.238 0-16.199-7.48-16.199-16.75 0-9.262 6.961-16.817 16.2-16.817s16.199 7.555 16.199 16.817c0 9.27-6.961 16.75-16.2 16.75m0-35.262C7.676-.004 0 8.286 0 18.473S7.676 36.89 17.863 36.89c10.188 0 17.864-8.23 17.864-18.418S28.05-.004 17.863-.004" style="stroke:none;fill-rule:nonzero;fill:#dda913;fill-opacity:1"/></g><path d="M28.703 29.84v-2.922l-12.02-10.906c-.472-.438-.316-.676.137-.676h9l-4.535 3.656 1.668 1.606 9.457-7.352-13.976-.004c-1.875 0-2.567.04-3.008.172-.422.129-.977.399-1.274 1.05-.218.477-.23 1.337.082 1.868.426.738 1.153 1.39 3.012 3.352-1.84-1.133-6.75-4.348-6.75-4.348l1.363.004-.004-2.098H3.188z" style="stroke:none;fill-rule:nonzero;fill:#dda913;fill-opacity:1"/></svg>
